TF1/landau.svg

<svg xmlns="http://www.w3.org/2000/svg" viewBox="0 0 698 474" preserveAspectRatio="none" width="698" height="474">
 <path d="M0,0H698V474H0Z" style="fill: white;"></path>
 <g>
  <g transform="translate(70,47)">
   <path d="M0,0H558V379H0Z" style="fill: none; stroke: black; stroke-width: 1;"></path>
   <svg x="0" y="0" overflow="hidden" width="558" height="379" viewBox="0 0 558 379">
    <g>
     <path d="M0,26h3v117h3v11h2v3h3v12h3v-10h3v12h3v3h2v6h3v3h6v-5h2v15h3v2h3v-6h3v6h3v19h2v-3h3v-14h3v14h3v14h3v-14h2v6h6v32h3v-24h3v5h5v6h3v13h3v9h5v-16h3v-12h3v12h3v28h5v-12h3v28h3v28h3v-28h2v-16h12v16h8v-16h6v114h5v-98h8v98h9v-70h3v70h2v-70h3v70h9v-98h2v28h6v70h3v-70h11v70h8v-70h3v70h17v-70h3v70h19v-98h3v98h8v-70h3v70h42v-70h3v70h248" style="stroke-linejoin: miter; stroke: #000099; stroke-width: 1; fill: none;"></path>
    </g>
    <g>
     <path d="M1,28v0h1l1,97l1,4v3l1,2l1,3v2l1,2v2l1,2v1l1,2v1l1,2l1,1v2l1,1v1l1,1v2l1,1l1,1v1l1,1v1l1,1v1l1,1v1l1,1l1,1v1l1,1v1l1,1l1,1v1l1,1l1,1v0l1,1v1l1,1v1l1,1l1,1l1,1v0l1,1v1l1,1v0l1,1v1l2,1v1l1,1l1,1v0l1,1l1,1v0l1,1v1l1,1l1,1v0l1,1l1,1v0l1,1v1l1,1l1,1l1,1h1v1l1,1l1,1v0l1,1v0l1,1l1,1v0l1,1v0l1,1v1l1,1l2,1v0l1,1v1l1,1l1,1l2,1v1l1,1l1,1l2,1v0l1,1v1l1,1l1,1l2,1v0l1,1v0l1,1v0l1,1v1l2,1v0l1,1v0l1,1v0l1,1v0l1,1h1v1l1,1l1,1l1,1v0l1,1h1v1l1,1l1,1l2,1v0l1,1v0l1,1v0l1,1v0l1,1h1v1l1,1l1,1l1,1l2,1v0l1,1v0l1,1v0l1,1v0l1,1h1v1l1,1l1,1l1,1l2,1v0l1,1v0l1,1v0l1,1h1v1l1,1l1,1l1,1l2,1v0l1,1v0l1,1v0l1,1v0l2,1v0l1,1v0l1,1v0l1,1v0l1,1h1v1l1,1l1,1l1,1l2,1v0l1,1v0l1,1v0l2,1v0l1,1v0l1,1v0l1,1v0l1,1h1v1l1,1l1,1l1,1h2v1l1,1l1,1l1,1l2,1v0l1,1v0l1,1v0l1,1l2,1v0l1,1v0l1,1v0l1,1v0l1,1h1v1h1l1,1v0l1,1h1v1l1,1l1,1l1,1h2v1l1,1l1,1l1,1l2,1v0l1,1v0l1,1l1,1l2,1v0l1,1v0l1,1v0l1,1l2,1v0l1,1v0l1,1v0l1,1h1v1h1l1,1v0l1,1v0l1,1h1v1l1,1h1l1,1v0l1,1h1v1l1,1h1l1,1v0l1,1h1v1l1,1l1,1h1l1,1h1v1l1,1l1,1l2,1v0l1,1l1,1l1,1l2,1v0l1,1l1,1l1,1l2,1v0l1,1l1,1l1,1l2,1v0l1,1v0l1,1l1,1l2,1v0l1,1v0l1,1l1,1l2,1v0l1,1v0l1,1l2,1v5h1h1h1h2v0h1h1h1h2v0h1h1h1h2v0h1h1h1h2v0h1h1h2v0h1h1h1h2v0h1h1h1h2v0h1h1h1h2v0h1h1h1h2v0h1h1h2v0h1h1h1h2v0h1h1h1h2v0h1h1h1h2v0h1h1h1h2v0h1h1h2v0h1h1h1h2v0h1h1h1h2v0h1h1h1h2v0h1h1h1h2v0h1h1h1h2v0h1h1h2v0h1h1h1h2v0h1h1h1h2v0h1h1h1h2v0h1h1h1h2v0h1h1h2v0h1h1h1h2v0h1h1h1h2v0h1h1h1h2v0h1h1h1h2v0h1h1h2v0h1h1h1h2v0h1h1h1h2v0h1h1h1h2v0h1h1h1h2v0h1h1h2v0h1h1h1h2v0h1h1h1h2v0h1h1h1h2v0h1h1h1h2v0h1h1h1h2v0h1h1h2v0h1h1h1h2v0h1h1h1h2v0h1h1h1h2v0h1h1h1h2v0h1h1h2v0h1h1h1h2v0h1h1h1h2v0h1h1h1h2v0h1h1h1h2v0h1h1h2v0h1h1h1h2v0h1h1h1h2v0h1h1h1h2v0h1h1h1h2v0h1h1h1h2v0h1h1h2v0h1h1h1h2v0h1h1h1h2v0h1h1h1h2v0h1h1h1h2v0h1h1h2v0h1h1h1h2v0h1h1h1" style="fill: none; stroke: red; stroke-width: 2;"></path>
    </g>
    <g>
     <path d="M1,26v0h1l1,97l1,4v3l1,3l1,3v2l1,2v2l1,2v2l1,2v1l1,2l1,2v1l1,1v2l1,1v1l1,2l1,1v1l1,1v1l1,1v2l1,1v1l1,1l1,1v1l1,1v1l1,1l1,1v1l1,1l1,1v1l1,1v1l1,1l1,1v1l1,1h1v1l1,1v1l1,1v0l1,1v1l1,1h1v1l1,1v0l1,1v1l1,1h1v1l1,1v0l1,1v1l1,1l1,1h1v1l1,1v0l1,1v1l1,1l1,1h1v1l1,1l1,1v0l1,1v1l2,1v0l1,1v1l1,1l1,1v0l1,1h1v1l1,1v0l1,1v0l1,1v0l1,1l1,1v0l1,1v0l1,1v1l2,1v0l1,1v0l1,1v0l1,1v1l2,1v0l1,1v0l1,1v1l1,1l2,1v0l1,1v0l1,1v0l1,1v1l2,1v0l1,1v0l1,1v0l1,1v0l1,1h1v1l1,1v0l1,1v0l1,1h1v1l1,1l1,1l1,1l2,1v0l1,1v0l1,1v0l1,1v1l2,1v0l1,1v0l1,1v0l1,1v0l1,1h1v1l1,1l1,1l1,1l2,1v0l1,1v0l1,1v0l1,1h1v1l1,1l1,1l1,1l2,1v0l1,1v0l1,1v0l1,1v0l1,1h1v1l1,1l1,1l1,1l2,1v0l1,1v0l1,1v0l1,1v0l1,1h1v1l1,1h1l1,1h1v1l1,1l1,1l1,1l2,1v0l1,1v0l1,1v0l1,1v0l1,1h1v1l1,1l1,1h1l1,1h1v1l1,1l1,1l1,1l2,1v0l1,1v0l1,1v0l1,1v0l1,1h1v0l1,1v0l1,1v0l1,1h1v1l1,1l1,1l1,1l2,1v0l1,1l1,1l1,1l2,1v0l1,1v0l1,1v0l1,1v0l2,1v0l1,1v0l1,1v0l1,1v0l1,1h1v1h1l1,1v0l1,1h1v1l1,1l1,1l1,1h2v1l1,1l1,1l1,1l2,1v0l1,1v0l1,1l1,1l2,1v0l1,1v0l1,1v0l1,1v0l2,1v0l1,1v0l1,1v0l1,1h1v1h1l1,1v0l1,1v0l1,1h1v1l1,1h1l1,1v0l1,1h1v1l1,1l1,1h1l1,1h1v1l1,1l1,1l1,1l2,5v0h1h1h1h2v0h1h1h2v0h1h1h1h2v0h1h1h1h2v0h1h1h1h2v0h1h1h1h2v0h1h1h2v0h1h1h1h2v0h1h1h1h2v0h1h1h1h2v0h1h1h1h2v0h1h1h2v0h1h1h1h2v0h1h1h1h2v0h1h1h1h2v0h1h1h1h2v0h1h1h2v0h1h1h1h2v0h1h1h1h2v0h1h1h1h2v0h1h1h1h2v0h1h1h1h2v0h1h1h2v0h1h1h1h2v0h1h1h1h2v0h1h1h1h2v0h1h1h1h2v0h1h1h2v0h1h1h1h2v0h1h1h1h2v0h1h1h1h2v0h1h1h1h2v0h1h1h2v0h1h1h1h2v0h1h1h1h2v0h1h1h1h2v0h1h1h1h2v0h1h1h2v0h1h1h1h2v0h1h1h1h2v0h1h1h1h2v0h1h1h1h2v0h1h1h1h2v0h1h1h2v0h1h1h1h2v0h1h1h1h2v0h1h1h1h2v0h1h1h1h2v0h1h1h2v0h1h1h1h2v0h1h1h1h2v0h1h1h1h2v0h1h1h1h2v0h1h1h2v0h1h1h1h2v0h1h1h1h2v0h1h1h1h2v0h1h1h1h2v0h1h1h1h2v0h1h1h2v0h1h1h1h2v0h1h1h1h2v0h1h1h1h2v0h1h1h1h2v0h1h1h2v0h1h1h1h2v0h1h1h1" style="fill: none; stroke: green; stroke-width: 2;"></path>
    </g>
   </svg>
   <g>
    <g transform="translate(0,379)">
     <path d="M0,0h558M0,-14V0M11,-7V0M22,-7V0M33,-7V0M45,-7V0M56,-14V0M67,-7V0M78,-7V0M89,-7V0M100,-7V0M112,-14V0M123,-7V0M134,-7V0M145,-7V0M156,-7V0M167,-14V0M179,-7V0M190,-7V0M201,-7V0M212,-7V0M223,-14V0M234,-7V0M246,-7V0M257,-7V0M268,-7V0M279,-14V0M290,-7V0M301,-7V0M312,-7V0M324,-7V0M335,-14V0M346,-7V0M357,-7V0M368,-7V0M379,-7V0M391,-14V0M402,-7V0M413,-7V0M424,-7V0M435,-7V0M446,-14V0M458,-7V0M469,-7V0M480,-7V0M491,-7V0M502,-14V0M513,-7V0M525,-7V0M536,-7V0M547,-7V0M558,-14V0" style="stroke: black; stroke-width: 1;"></path>
     <g font-family="Arial" font-size="17" space="preserve" fill="black" text-anchor="middle">
      <text dy=".8em">
       0
      </text>
      <text dy=".8em" transform="translate(56)">
       1
      </text>
      <text dy=".8em" transform="translate(112)">
       2
      </text>
      <text dy=".8em" transform="translate(167)">
       3
      </text>
      <text dy=".8em" transform="translate(223)">
       4
      </text>
      <text dy=".8em" transform="translate(279)">
       5
      </text>
      <text dy=".8em" transform="translate(335)">
       6
      </text>
      <text dy=".8em" transform="translate(391)">
       7
      </text>
      <text dy=".8em" transform="translate(446)">
       8
      </text>
      <text dy=".8em" transform="translate(502)">
       9
      </text>
      <text dy=".8em" transform="translate(558)">
       10
      </text>
     </g>
    </g>
    <g>
     <path d="M0,0v379M11,363H0M11,351H0M11,342H0M11,335H0M11,329H0M11,323H0M11,318H0M21,314H0M11,286H0M11,270H0M11,258H0M11,249H0M11,242H0M11,236H0M11,230H0M11,225H0M21,221H0M11,193H0M11,177H0M11,165H0M11,156H0M11,149H0M11,143H0M11,137H0M11,132H0M21,128H0M11,100H0M11,84H0M11,72H0M11,63H0M11,56H0M11,50H0M11,44H0M11,39H0M21,35H0M11,7H0" style="stroke: black; stroke-width: 1;"></path>
     <g font-family="Arial" font-size="17" space="preserve">
      <g transform="translate(-26,321)">
       <text fill="black" font-size="17">
        10
       </text>
       <text fill="black" font-size="10" transform="translate(18,-9)">
        0
       </text>
      </g>
      <g transform="translate(-25,228)">
       <text fill="black" font-size="17">
        10
       </text>
       <text fill="black" font-size="10" transform="translate(18,-9)">
        1
       </text>
      </g>
      <g transform="translate(-26,135)">
       <text fill="black" font-size="17">
        10
       </text>
       <text fill="black" font-size="10" transform="translate(18,-9)">
        2
       </text>
      </g>
      <g transform="translate(-26,42)">
       <text fill="black" font-size="17">
        10
       </text>
       <text fill="black" font-size="10" transform="translate(18,-9)">
        3
       </text>
      </g>
     </g>
    </g>
   </g>
  </g>
  <g transform="translate(544,31)" font-family="Arial" font-size="13" space="preserve" fill="black">
   <path d="M0,0H140V76H0Z" style="fill: white; stroke: black; stroke-width: 1;"></path>
   <text text-anchor="middle" dy=".4em" transform="translate(70,10)">
    hdist
   </text>
   <text text-anchor="start" dy=".4em" transform="translate(7,29)">
    Entries
   </text>
   <text text-anchor="end" dy=".4em" transform="translate(133,29)">
    2001
   </text>
   <text text-anchor="start" dy=".4em" transform="translate(7,48)">
    Mean
   </text>
   <text text-anchor="end" dy=".4em" transform="translate(133,48)">
    0.2836
   </text>
   <text text-anchor="start" dy=".4em" transform="translate(7,67)">
    Std Dev
   </text>
   <text text-anchor="end" dy=".4em" transform="translate(133,67)">
    0.5607
   </text>
   <path d="M0,19h140" style="stroke: black; stroke-width: 1;"></path>
  </g>
  <g transform="translate(199,2)" font-family="Arial" font-size="18" space="preserve">
   <text fill="black" text-anchor="middle" dy=".4em" transform="translate(151,13)">
    Test Statistic distribution
   </text>
  </g>
 </g>
</svg>

<svg xmlns="http://www.w3.org/2000/svg" viewBox="0 0 698 474" preserveAspectRatio="none" width="698" height="474">
 <path d="M0,0H698V474H0Z" style="fill: white;"></path>
 <g>
  <g transform="translate(70,47)">
   <path d="M0,0H558V379H0Z" style="fill: none; stroke: black; stroke-width: 1;"></path>
   <svg x="0" y="0" overflow="hidden" width="558" height="379" viewBox="0 0 558 379">
    <g>
     <path d="M0,26h3v117h3v11h2v3h3v12h3v-10h3v12h3v3h2v6h3v3h6v-5h2v15h3v2h3v-6h3v6h3v19h2v-3h3v-14h3v14h3v14h3v-14h2v6h6v32h3v-24h3v5h5v6h3v13h3v9h5v-16h3v-12h3v12h3v28h5v-12h3v28h3v28h3v-28h2v-16h12v16h8v-16h6v114h5v-98h8v98h9v-70h3v70h2v-70h3v70h9v-98h2v28h6v70h3v-70h11v70h8v-70h3v70h17v-70h3v70h19v-98h3v98h8v-70h3v70h42v-70h3v70h248" style="stroke-linejoin: miter; stroke: #000099; stroke-width: 1; fill: none;"></path>
    </g>
    <g>
     <path d="M1,28L1,28L2,28L3,125L4,129L4,132L5,134L6,137L6,139L7,141L7,143L8,145L8,146L9,148L9,149L10,151L11,152L11,154L12,155L12,156L13,157L13,159L14,160L15,161L15,162L16,163L16,164L17,165L17,166L18,167L18,168L19,169L20,170L20,171L21,172L21,173L22,174L23,175L23,176L24,177L25,178L25,178L26,179L26,180L27,181L27,182L28,183L29,184L30,185L30,185L31,186L31,187L32,188L32,188L33,189L33,190L35,191L35,192L36,193L37,194L37,194L38,195L39,196L39,196L40,197L40,198L41,199L42,200L42,200L43,201L44,202L44,202L45,203L45,204L46,205L47,206L48,207L49,207L49,208L50,209L51,210L51,210L52,211L52,211L53,212L54,213L54,213L55,214L55,214L56,215L56,216L57,217L59,218L59,218L60,219L60,220L61,221L62,222L64,223L64,224L65,225L66,226L68,227L68,227L69,228L69,229L70,230L71,231L73,232L73,232L74,233L74,233L75,234L75,234L76,235L76,236L78,237L78,237L79,238L79,238L80,239L80,239L81,240L81,240L82,241L83,241L83,242L84,243L85,244L86,245L86,245L87,246L88,246L88,247L89,248L90,249L92,250L92,250L93,251L93,251L94,252L94,252L95,253L95,253L96,254L97,254L97,255L98,256L99,257L100,258L102,259L102,259L103,260L103,260L104,261L104,261L105,262L105,262L106,263L107,263L107,264L108,265L109,266L110,267L112,268L112,268L113,269L113,269L114,270L114,270L115,271L116,271L116,272L117,273L118,274L119,275L121,276L121,276L122,277L122,277L123,278L123,278L124,279L124,279L126,280L126,280L127,281L127,281L128,282L128,282L129,283L129,283L130,284L131,284L131,285L132,286L133,287L134,288L136,289L136,289L137,290L137,290L138,291L138,291L140,292L140,292L141,293L141,293L142,294L142,294L143,295L143,295L144,296L145,296L145,297L146,298L147,299L148,300L150,300L150,301L151,302L152,303L153,304L155,305L155,305L156,306L156,306L157,307L157,307L158,308L160,309L160,309L161,310L161,310L162,311L162,311L163,312L163,312L164,313L165,313L165,314L166,314L167,315L167,315L168,316L169,316L169,317L170,318L171,319L172,320L174,320L174,321L175,322L176,323L177,324L179,325L179,325L180,326L180,326L181,327L182,328L184,329L184,329L185,330L185,330L186,331L186,331L187,332L189,333L189,333L190,334L190,334L191,335L191,335L192,336L193,336L193,337L194,337L195,338L195,338L196,339L196,339L197,340L198,340L198,341L199,342L200,342L201,343L201,343L202,344L203,344L203,345L204,346L205,346L206,347L206,347L207,348L208,348L208,349L209,350L210,351L211,351L212,352L213,352L213,353L214,354L215,355L217,356L217,356L218,357L219,358L220,359L222,360L222,360L223,361L224,362L225,363L227,364L227,364L228,365L229,366L230,367L232,368L232,368L233,369L233,369L234,370L235,371L237,372L237,372L238,373L238,373L239,374L240,375L242,376L242,376L243,377L243,377L244,378L246,379L246,384L247,384L248,384L249,384L251,384L251,384L252,384L253,384L254,384L256,384L256,384L257,384L258,384L259,384L261,384L261,384L262,384L263,384L264,384L266,384L266,384L267,384L268,384L270,384L270,384L271,384L272,384L273,384L275,384L275,384L276,384L277,384L278,384L280,384L280,384L281,384L282,384L283,384L285,384L285,384L286,384L287,384L288,384L290,384L290,384L291,384L292,384L294,384L294,384L295,384L296,384L297,384L299,384L299,384L300,384L301,384L302,384L304,384L304,384L305,384L306,384L307,384L309,384L309,384L310,384L311,384L312,384L314,384L314,384L315,384L316,384L318,384L318,384L319,384L320,384L321,384L323,384L323,384L324,384L325,384L326,384L328,384L328,384L329,384L330,384L331,384L333,384L333,384L334,384L335,384L336,384L338,384L338,384L339,384L340,384L341,384L343,384L343,384L344,384L345,384L347,384L347,384L348,384L349,384L350,384L352,384L352,384L353,384L354,384L355,384L357,384L357,384L358,384L359,384L360,384L362,384L362,384L363,384L364,384L365,384L367,384L367,384L368,384L369,384L371,384L371,384L372,384L373,384L374,384L376,384L376,384L377,384L378,384L379,384L381,384L381,384L382,384L383,384L384,384L386,384L386,384L387,384L388,384L389,384L391,384L391,384L392,384L393,384L395,384L395,384L396,384L397,384L398,384L400,384L400,384L401,384L402,384L403,384L405,384L405,384L406,384L407,384L408,384L410,384L410,384L411,384L412,384L413,384L415,384L415,384L416,384L417,384L419,384L419,384L420,384L421,384L422,384L424,384L424,384L425,384L426,384L427,384L429,384L429,384L430,384L431,384L432,384L434,384L434,384L435,384L436,384L437,384L439,384L439,384L440,384L441,384L442,384L444,384L444,384L445,384L446,384L448,384L448,384L449,384L450,384L451,384L453,384L453,384L454,384L455,384L456,384L458,384L458,384L459,384L460,384L461,384L463,384L463,384L464,384L465,384L466,384L468,384L468,384L469,384L470,384L472,384L472,384L473,384L474,384L475,384L477,384L477,384L478,384L479,384L480,384L482,384L482,384L483,384L484,384L485,384L487,384L487,384L488,384L489,384L490,384L492,384L492,384L493,384L494,384L496,384L496,384L497,384L498,384L499,384L501,384L501,384L502,384L503,384L504,384L506,384L506,384L507,384L508,384L509,384L511,384L511,384L512,384L513,384L514,384L516,384L516,384L517,384L518,384L519,384L521,384L521,384L522,384L523,384L525,384L525,384L526,384L527,384L528,384L530,384L530,384L531,384L532,384L533,384L535,384L535,384L536,384L537,384L538,384L540,384L540,384L541,384L542,384L543,384L545,384L545,384L546,384L547,384L549,384L549,384L550,384L551,384L552,384L554,384L554,384L555,384L556,384L557,384" style="fill: none; stroke: red; stroke-width: 2;"></path>
    </g>
    <g>
     <path d="M1,26L1,26L2,26L3,123L4,127L4,130L5,133L6,136L6,138L7,140L7,142L8,144L8,146L9,148L9,149L10,151L11,153L11,154L12,155L12,157L13,158L13,159L14,161L15,162L15,163L16,164L16,165L17,166L17,168L18,169L18,170L19,171L20,172L20,173L21,174L21,175L22,176L23,177L23,178L24,179L25,180L25,181L26,182L26,183L27,184L28,185L28,186L29,187L30,187L30,188L31,189L31,190L32,191L32,191L33,192L33,193L34,194L35,194L35,195L36,196L36,196L37,197L37,198L38,199L39,199L39,200L40,201L40,201L41,202L41,203L42,204L43,205L44,205L44,206L45,207L45,207L46,208L46,209L47,210L48,211L49,211L49,212L50,213L51,214L51,214L52,215L52,216L54,217L54,217L55,218L55,219L56,220L57,221L57,221L58,222L59,222L59,223L60,224L60,224L61,225L61,225L62,226L62,226L63,227L64,228L64,228L65,229L65,229L66,230L66,231L68,232L68,232L69,233L69,233L70,234L70,234L71,235L71,236L73,237L73,237L74,238L74,238L75,239L75,240L76,241L78,242L78,242L79,243L79,243L80,244L80,244L81,245L81,246L83,247L83,247L84,248L84,248L85,249L85,249L86,250L86,250L87,251L88,251L88,252L89,253L89,253L90,254L90,254L91,255L92,255L92,256L93,257L94,258L95,259L97,260L97,260L98,261L98,261L99,262L99,262L100,263L100,264L102,265L102,265L103,266L103,266L104,267L104,267L105,268L105,268L106,269L107,269L107,270L108,271L109,272L110,273L112,274L112,274L113,275L113,275L114,276L114,276L115,277L116,277L116,278L117,279L118,280L119,281L121,282L121,282L122,283L122,283L123,284L123,284L124,285L124,285L125,286L126,286L126,287L127,288L128,289L129,290L131,291L131,291L132,292L132,292L133,293L133,293L134,294L134,294L135,295L136,295L136,296L137,297L138,297L139,298L140,298L140,299L141,300L142,301L143,302L145,303L145,303L146,304L146,304L147,305L147,305L148,306L148,306L149,307L150,307L150,308L151,309L152,310L153,310L154,311L155,311L155,312L156,313L157,314L158,315L160,316L160,316L161,317L161,317L162,318L162,318L163,319L163,319L164,320L165,320L165,320L166,321L166,321L167,322L167,322L168,323L169,323L169,324L170,325L171,326L172,327L174,328L174,328L175,329L176,330L177,331L179,332L179,332L180,333L180,333L181,334L181,334L182,335L182,335L184,336L184,336L185,337L185,337L186,338L186,338L187,339L187,339L188,340L189,340L189,341L190,341L191,342L191,342L192,343L193,343L193,344L194,345L195,346L196,347L198,347L198,348L199,349L200,350L201,351L203,352L203,352L204,353L204,353L205,354L206,355L208,356L208,356L209,357L209,357L210,358L210,358L211,359L211,359L213,360L213,360L214,361L214,361L215,362L215,362L216,363L217,363L217,364L218,364L219,365L219,365L220,366L220,366L221,367L222,367L222,368L223,369L224,369L225,370L225,370L226,371L227,371L227,372L228,373L229,374L230,374L231,375L232,375L232,376L233,377L234,378L235,379L237,384L237,384L238,384L239,384L240,384L242,384L242,384L243,384L244,384L246,384L246,384L247,384L248,384L249,384L251,384L251,384L252,384L253,384L254,384L256,384L256,384L257,384L258,384L259,384L261,384L261,384L262,384L263,384L264,384L266,384L266,384L267,384L268,384L270,384L270,384L271,384L272,384L273,384L275,384L275,384L276,384L277,384L278,384L280,384L280,384L281,384L282,384L283,384L285,384L285,384L286,384L287,384L288,384L290,384L290,384L291,384L292,384L294,384L294,384L295,384L296,384L297,384L299,384L299,384L300,384L301,384L302,384L304,384L304,384L305,384L306,384L307,384L309,384L309,384L310,384L311,384L312,384L314,384L314,384L315,384L316,384L318,384L318,384L319,384L320,384L321,384L323,384L323,384L324,384L325,384L326,384L328,384L328,384L329,384L330,384L331,384L333,384L333,384L334,384L335,384L336,384L338,384L338,384L339,384L340,384L341,384L343,384L343,384L344,384L345,384L347,384L347,384L348,384L349,384L350,384L352,384L352,384L353,384L354,384L355,384L357,384L357,384L358,384L359,384L360,384L362,384L362,384L363,384L364,384L365,384L367,384L367,384L368,384L369,384L371,384L371,384L372,384L373,384L374,384L376,384L376,384L377,384L378,384L379,384L381,384L381,384L382,384L383,384L384,384L386,384L386,384L387,384L388,384L389,384L391,384L391,384L392,384L393,384L395,384L395,384L396,384L397,384L398,384L400,384L400,384L401,384L402,384L403,384L405,384L405,384L406,384L407,384L408,384L410,384L410,384L411,384L412,384L413,384L415,384L415,384L416,384L417,384L419,384L419,384L420,384L421,384L422,384L424,384L424,384L425,384L426,384L427,384L429,384L429,384L430,384L431,384L432,384L434,384L434,384L435,384L436,384L437,384L439,384L439,384L440,384L441,384L442,384L444,384L444,384L445,384L446,384L448,384L448,384L449,384L450,384L451,384L453,384L453,384L454,384L455,384L456,384L458,384L458,384L459,384L460,384L461,384L463,384L463,384L464,384L465,384L466,384L468,384L468,384L469,384L470,384L472,384L472,384L473,384L474,384L475,384L477,384L477,384L478,384L479,384L480,384L482,384L482,384L483,384L484,384L485,384L487,384L487,384L488,384L489,384L490,384L492,384L492,384L493,384L494,384L496,384L496,384L497,384L498,384L499,384L501,384L501,384L502,384L503,384L504,384L506,384L506,384L507,384L508,384L509,384L511,384L511,384L512,384L513,384L514,384L516,384L516,384L517,384L518,384L519,384L521,384L521,384L522,384L523,384L525,384L525,384L526,384L527,384L528,384L530,384L530,384L531,384L532,384L533,384L535,384L535,384L536,384L537,384L538,384L540,384L540,384L541,384L542,384L543,384L545,384L545,384L546,384L547,384L549,384L549,384L550,384L551,384L552,384L554,384L554,384L555,384L556,384L557,384" style="fill: none; stroke: green; stroke-width: 2;"></path>
    </g>
   </svg>
   <g>
    <g transform="translate(0,379)">
     <path d="M0,0h558M0,-14V0M11,-7V0M22,-7V0M33,-7V0M45,-7V0M56,-14V0M67,-7V0M78,-7V0M89,-7V0M100,-7V0M112,-14V0M123,-7V0M134,-7V0M145,-7V0M156,-7V0M167,-14V0M179,-7V0M190,-7V0M201,-7V0M212,-7V0M223,-14V0M234,-7V0M246,-7V0M257,-7V0M268,-7V0M279,-14V0M290,-7V0M301,-7V0M312,-7V0M324,-7V0M335,-14V0M346,-7V0M357,-7V0M368,-7V0M379,-7V0M391,-14V0M402,-7V0M413,-7V0M424,-7V0M435,-7V0M446,-14V0M458,-7V0M469,-7V0M480,-7V0M491,-7V0M502,-14V0M513,-7V0M525,-7V0M536,-7V0M547,-7V0M558,-14V0" style="stroke: black; stroke-width: 1;"></path>
     <g font-family="Arial" font-size="17" space="preserve" fill="black" text-anchor="middle">
      <text dy=".8em">
       0
      </text>
      <text dy=".8em" transform="translate(56)">
       1
      </text>
      <text dy=".8em" transform="translate(112)">
       2
      </text>
      <text dy=".8em" transform="translate(167)">
       3
      </text>
      <text dy=".8em" transform="translate(223)">
       4
      </text>
      <text dy=".8em" transform="translate(279)">
       5
      </text>
      <text dy=".8em" transform="translate(335)">
       6
      </text>
      <text dy=".8em" transform="translate(391)">
       7
      </text>
      <text dy=".8em" transform="translate(446)">
       8
      </text>
      <text dy=".8em" transform="translate(502)">
       9
      </text>
      <text dy=".8em" transform="translate(558)">
       10
      </text>
     </g>
    </g>
    <g>
     <path d="M0,0v379M11,363H0M11,351H0M11,342H0M11,335H0M11,329H0M11,323H0M11,318H0M21,314H0M11,286H0M11,270H0M11,258H0M11,249H0M11,242H0M11,236H0M11,230H0M11,225H0M21,221H0M11,193H0M11,177H0M11,165H0M11,156H0M11,149H0M11,143H0M11,137H0M11,132H0M21,128H0M11,100H0M11,84H0M11,72H0M11,63H0M11,56H0M11,50H0M11,44H0M11,39H0M21,35H0M11,7H0" style="stroke: black; stroke-width: 1;"></path>
     <g font-family="Arial" font-size="17" space="preserve">
      <g transform="translate(-26,321)">
       <text fill="black" font-size="17">
        10
       </text>
       <text fill="black" font-size="10" transform="translate(18,-9)">
        0
       </text>
      </g>
      <g transform="translate(-25,228)">
       <text fill="black" font-size="17">
        10
       </text>
       <text fill="black" font-size="10" transform="translate(18,-9)">
        1
       </text>
      </g>
      <g transform="translate(-26,135)">
       <text fill="black" font-size="17">
        10
       </text>
       <text fill="black" font-size="10" transform="translate(18,-9)">
        2
       </text>
      </g>
      <g transform="translate(-26,42)">
       <text fill="black" font-size="17">
        10
       </text>
       <text fill="black" font-size="10" transform="translate(18,-9)">
        3
       </text>
      </g>
     </g>
    </g>
   </g>
  </g>
  <g transform="translate(544,31)" font-family="Arial" font-size="13" space="preserve" fill="black">
   <path d="M0,0H140V76H0Z" style="fill: white; stroke: black; stroke-width: 1;"></path>
   <text text-anchor="middle" dy=".4em" transform="translate(70,10)">
    hdist
   </text>
   <text text-anchor="start" dy=".4em" transform="translate(7,29)">
    Entries
   </text>
   <text text-anchor="end" dy=".4em" transform="translate(133,29)">
    2001
   </text>
   <text text-anchor="start" dy=".4em" transform="translate(7,48)">
    Mean
   </text>
   <text text-anchor="end" dy=".4em" transform="translate(133,48)">
    0.2836
   </text>
   <text text-anchor="start" dy=".4em" transform="translate(7,67)">
    Std Dev
   </text>
   <text text-anchor="end" dy=".4em" transform="translate(133,67)">
    0.5607
   </text>
   <path d="M0,19h140" style="stroke: black; stroke-width: 1;"></path>
  </g>
  <g transform="translate(199,2)" font-family="Arial" font-size="18" space="preserve">
   <text fill="black" text-anchor="middle" dy=".4em" transform="translate(151,13)">
    Test Statistic distribution
   </text>
  </g>
 </g>
</svg>
